X:1
T:Baci dolci e soavi
T:Adriano Banchieri Bolognese
T:Source : Canzonette a tre voci di A.Banchieri---Venetia---R.Amadino---1597. Editor : André Vierendeels  (10/03/17).
T:Notes : Original clefs : C1, C1, F4 Editorial accidentals above the staff Sub-heading : "Furto Amoroso"
T:Baci dolci e soavi
T:-natural
T:©
T:©
T:©
T:©
T:©
T:©
C:Adriano Banchieri Bolognese
Z:©
%%score [ 1 2 3 ]
L:1/8
Q:1/4=120
M:4/4
K:C
V:1 treble nm="Soprano 1" snm="S 1"
V:2 treble nm="Soprano 2" snm="S 2"
V:3 bass nm="Bass" snm="B"
V:1
"^1)" e6 d2 | ^c4 d4- | d4 c4 | B8 | A4 A4- | A2 G2 ^F4 | G4 G4 | G8 | E4 e4 | d4 c2 B2- | %10
w: Ba- ci|dol- ci'e|_ so-|a-|vi, ba-|* ci dol-|ci'e so-|a-|vi, voi|lab- bia mie|
w: Lin- gua|dol- c'e'a-|* mo-|ro-|sa, lin-|* gua dol-|c'e'a- mo-|ro-|sa, che|tra Ru- bi-|
 B2 A2 ^G4 | A4 A2 ^F2 | ^G2 A4 G2 | A8 | z4 A4- | A2 G2 ^F4 | ^G4 A4 | A4 ^G4 | A4 e4 | d6 c2 | %20
w: _ gu- star|mai non pen-|sa- * *|vi,|ba-|* ci dol-|ci'e so-|a- *|vi, dol-|ci'e so-|
w: * ni'e per-|le stai as-|co- * *|sa,,|lin-|* gua dol-|c'e'a- mo-|ro- *|sa, dol-|c'e'a- mo-|
 B4 c4- | c2 BA B4 | c4 c4 | B4 A2 ^G2- | G2 A2 B4 | e4 d4- | d2 c2 B4 | A8 | e6 dc | B2 c2 d4 | %30
w: a- *||vi, voi|lab- bia mie|_ gu- star|mai non|_ pen- sa-|vi,|hor si che|sen- za fo-|
w: ro- *||sa, che|tra Ru- bi-|* ni'e per-|le stai|_ as- co-|sa|ahi- me, pos-|so ben di-|
 A2 A4 GF | G2 F2 E4- | E4 C4 | c2 c2 c2 BA | ^G2 B2 cBA=G | F2 E2 D4 | E8 | c2 c2 c2 BA | %38
w: le, hor si che|sen- za fo-|* le,|piu fe- li- ce di|me non vid- * * *|* de'il so-|le,|piu fe- li- ce di|
w: re, ahi- me, pos-|so ben di-|* re,|che nel mon- do non|è, si- mil _ _ _|_ gio- i-|re,|che nel mon- do non|
 G4 G2 G2 | G2 FE D2 A2 | ^G2 G2 A4- |"^#" A2 GF ^G4 | A4 c4- | c2 BA ^G2 A2 | B4 A4- | A4 c4- | %46
w: me, piu fe-|li- ce di me non|vid- de'il so-||le, hor|_ si che sen- za|fo- le,|_ hor|
w: è, che nel|mon- do non è, si-|mil gio- i-||re, ahi-|* me, pos- so ben|di- re,|_ ahi-|
 c2 BA ^G2 A2 | c4 A4 | A2 A2 A2 GF | E3 D C2 c2 | B2 c2 B4 | c8 | e2 e2 e2 dc | B4 B2 B2 | %54
w: _ si- che sen- za|fo- le,|piu fe- li- ce di|me _ _ non|vid- de'il so-|le,|piu fe- li- ce di|me, piu fe-|
w: * me, pos- so ben|di- re,|che nel mon- do non|è, _ _ si-|mil gio- i-|re,|che nel mon- do non|è, chel nel|
 B2 AG A2 d2 | B4 A4 | B8 | ^c8 |] %58
w: li- ce di me non|vid- de'il|so-|le.|
w: mon- do non è, si-|mil gio-|i-|re.|
V:2
"^2)""^1)" z4 A4- | A2 G2 ^F4 | ^G4 A4 | A4 ^G4 | A4 e4 | d6 c2 | B4 c4- | c2 BA B4 | c4 c4 | %9
w: Ba-|* ci dol-|ci'e so-|a- *|vi, ba-|ci dol-|ci'e so-|* * * a-|vi, voi|
w: A|_ fe ch'io|vo ba-|cia- *|re, per|dar ri-|sto- *||ro, a|
 B4 A2 ^G2- | G2 A2 B4 | e4 d4- |"^-natural" d2 c2 B4 | ^c8 | e6 d2 | ^c4 d4- | d4 c4 | B8 | %18
w: lab- bia mie|_ gu- star|mai non|_ pen- sa-|vi,|ba- ci|dol- ci'e|_ so-|a-|
w: tan- te pe-|* ne'a- ma-|||re,|a fe|ch'io vo|_ ba-|cia-|
 A4 A4- | A2 G2 ^F4 | G4 G4 | G8 | E4 e4 | d4 c2 B2- | B2 A2 ^G4 | A4 A2 B2 | ^G2 A4 G2 | A4 c4- | %28
w: vi, ba-|* ci dol-|ci'e so-|a-|vi, voi|lab- bia mie|_ gu- star|mai non pen-|sa- * *|vi, hor|
w: re, a|_ fe ch'io|vo ba-|cia-|re, per|dar ri- sto-||||ro, a|
 c2 BA ^G2 A2 | G4 F4- | F4 c4- | c2 BA ^G2 A2 | c4 A4 | A2 A2 A2 GF | E3 D C2 c2 | BA c4 B2 | c8 | %37
w: _ si che sen- za|fo- le,|_ hor|_ si che sen- za|fo- le,|piu fe- li- ce di|me _ _ non|vid- de'il so- *|le,|
w: _ tan- te pe- ne'a-|ma- re,|_ a|_ tan- te pe- ne'a-|ma- re,|che con si dol- ci|ba- * * *||ci,|
 e2 e2 e2 dc | B4 B2 B2 | B2 AG A2 d2 | B4 A4 | B8 | A8 | e6 dc | B2 c2 d4 | A2 A4 GF | G2 F2 E4- | %47
w: piu fe- li- ce di|me, piu fe-|li- ce di me non|vid- de'il|so-|le,|hor si che|sen- za fo-|le, hor si che|sen- za fo-|
w: che con si dol- ci|ba- ci, che|con si dol- ci ba-|||ci|scac- ci- e-|ro dal mio|cor, scac- ci- e-|ro dal mio|
 E4 C4 | c2 c2 c2 BA | ^G2 B2 cBAG | F2 E2 D4 | E8 | c2 c2 c2 BA | G4 G2 G2 | G2 FE D2 A2 | %55
w: * le,|piu fe- li- ce di|me non vid- * * *|* de'il so-|le,|piu fe- li- ce di|me, piu fe-|li- ce di me non|
w: _ cor,|che con si dol- ci|ba- * * * * *||ci|scac- cie- ri dal mio|cor, scac- cie-|ri dal mio cor l'ar-|
 ^G2 G2 A4- | A2 ^G^F G4 | A8 |] %58
w: vid- de'il so-||le.|
w: den- te fa-||ci.|
V:3
"^3)" z8 | z8 | z8 |"^1)" E,6 D,2 | ^C,8 | D,4 D,4 | E,6 F,2 | G,8 | C,4 C4 | G,4 A,2 E,2- | %10
w: |||Ba- ci|dol-|ci'e so-|a- *||vi, voi|lab- bia mie|
 E,2 F,2 E,4 | ^C,4 D,2 D,2 | E,8 | A,,8 | z8 | z8 | z8 | E,6 D,2 | ^C,8 | D,4 D,4 | E,6 F,2 | %21
w: _ gu- star|mai non pen-|sa-|vi,||||ba- ci|dol-|ci'e so-|a- *|
 G,8 | C,4 C4 | G,4 A,2 E,2- | E,2 F,2 E,4 | ^C,4 D,2 D,2 | E,8 | A,,4 A,4- | A,2 G,F, E,2 F,2 | %29
w: |vi, voi|lab- bia mie|_ gu- star|mai non pen-|sa-|vi, hor|_ si che sen- za|
 G,4 D,4 | F,6 E,D, | C,2 D,2 E,4 | A,,4 A,2 A,2 | A,2 G,F, E,4 | z2 E,2 A,G,F,E, | D,2 C,2 G,4 | %36
w: fo- le,|hor si che|sen- za fo-|le, piu fe-|li- ce di me|non vid- * * *|* de'il so-|
 C,4 C2 C2 | C2 B,A, G,4 | G,2 G,2 G,2 F,E, | D,4 D,4 | E,4 F,4 | E,8 | A,,4 A,4- | %43
w: le, piu fe-|li- ce di me,|piu fe- li- ce di|me non|vid- de'il|so-|le, hor|
 A,2 G,F, E,2 F,2 | G,4 D,4 | F,6 E,D, | C,2 D,2 E,4 | A,,4 A,2 A,2 | A,2 G,F, E,4 | %49
w: _ si che sen- za|fo- le,|hor si che|sen- za fo-|le, piu fe-|li- ce di me|
 z2 E,2 A,G,F,E, | D,2 C,2 G,4 | C,4 C2 C2 | C2 B,A, G,4 | G,2 G,2 G,2 F,E, | D,4 D,4 | E,4 F,4 | %56
w: non vid- * * *|* de'il so-|le, piu fe-|li- ce di me,|piu fe- li- ce- di|me non|vid- de'il|
 E,8 | A,,8 |] %58
w: so-|le.|

